X:117
T:The last time I came over the Moor. JJo.117
S:J.Jones MS,1801,N.Shrops.
N:I have not knowingly changed any note values in this piece, although the barlines
N:are not constant 4/4. JJ has attempted, with an impressive degree of success, to
N:include the grace notes, decorations and variations in this Scottish air.
N:There does however seem to be a bar missing in the first section, as
N:suggested by the more elaborate repeat of the tune.
A:N Shropshire
Z:Neil Brookes 2006
M:4/4
L:1/8
Q:1/4=120
K:G
d>c|{c}TB2 AG g3a|{gb}b2ag{g}Tf2 ed|{f}Te3fg2d>c|!
{c}TB2 AG g3a|{ga}b2ag{g}Tf2 ed|efga bagf|e3fg2||!
ag|{g}2edd3b|afef ed3B|d3e dBAB|{e}d3fg2zd|!
edeg Te2dB|dBde Tg3a|bage degc|B2TA2G4||!
d>c|{c}TB2 AG Tg3a|{ga}b2 (3c’ba (3bag {g}Tf2ed|\
{d}e3{f}g e/d/c/B/c/B/A/G/|!
{d}e3f{f}g2 (3edc|B/4D/4E/4F/4 G/4A/4B/4c/4 d/4e/4f/4g/4Tg2a|\
{ga}b2c’/b/a/g/Tf2ed|!
e/d/e/f/ g/f/g/a/ b>g a>f|{f}Te3fg2||
ag|{g}Tf2 (3agf (3gfe {e}d3b|a/b/a/f/ b/g/f/e/ {e}d3B|d3e d/B/A/B/ dB|!
{e}Td3fg2zd|Te>d e/d/e/g/ Te2 (3edc (3dcB|\
{e}dBde {a}g3a|b/a/b/a/ g/a/g/e/|d>egc B2TA2G4|]

